X:1
T:Title
L:1/8
M:4/4
K:Bb
V:1 treble nm="Grand Piano"
V:1
 z4 z2 z[Q:1/4=100] F | B3 G F2 z D/E/ | F F2 E DE z F | B3 G F2 z B/B/ | c c2 A GF z F | %5
 B3 G F2 z D/E/ | F F2 E DE z F | G3 G A3 F | B8 |] %9

